X:267
T:Cullen Jig, The
T:Padraig O'Keeffe's
T:Cuileann U\'i Chaoimh
R:jig
Z:id:hn-jig-267
M:6/8
K:Bm
~B3 BAF|ABd dAF|BcB BAF|AFE EFA|
~B3 BAF|ABd dAF|GBG ~F3|EFE D3:|
DFA d2e|f2d ecA|gfe fdB|AFA BcB|
Adf afa|baf a2f|gfe fdB|AFA B2g|
fdc d2e|f2d ecA|gfe fdB|AFA BcB|
Adf afa|baf a2f|gfe fdB|AFA B3||
P:variations
|:~B3 BAF|A2d dcd|~B3 BAF|AFE EFA|
~B3 BAF|A2d dAF|~G3 FGF|EFE D3:|
DFA d2e|fdf ecA|geg fdB|AFA ~B3|
Adf ~a3|baf a2f|geg fdB|AFA B2g|
fdc d2g|fdf ecA|geg fdB|AFA ~B3|
Adf ~a3|baf a2f|geg fdB|AFA B2A||

